X:0458
T:Ardkinglass's Delight.
T:For Ger. Flute
N:Ardkinlass's delight 2 Setts [title in index]
M:C|
L:1/8
Q:1/2=86 "Slow"
I: :: ::
Z:Jack Campin * www.campin.me.uk * 2009
K:D
D2|F2A2 B2  d2 |e2f2 a3       b| a2ba    (ba)(fd)|(e/f/g) e2-e3
D |F2A2 B2  d2 |e2f2 b/c'/d' b2| abaf    Te3   d | d/e/f  d2 d2::
a2|f2a2 bc' d'2|abaf e3       d|(fd)(fa) (ba)(fd)|(d/e/f) e4
d2|B2d2 F2  A2 |B2d2 b/c'/d' b2|(ab)(af) Te3   d |(d/e/f) d2 d2:|
<end>
<start>
